usr/share/icons/biglinux-icons-material/24/actions/tag.svg

<svg xmlns="http://www.w3.org/2000/svg" viewBox="0 0 24 24"><path d="M10 4 4 6l2 6 10 5 4-8-10-5zM4 6v6l8 8 2.705-2.705L5 12 4 6zm3.5 0C8.331 6 9 6.669 9 7.5S8.331 9 7.5 9 6 8.331 6 7.5 6.669 6 7.5 6z" style="fill:currentColor;fill-opacity:1;stroke:none;color:#dedede"/></svg>

<svg xmlns="http://www.w3.org/2000/svg" viewBox="0 0 24 24">
  <defs id="defs3051">
    <style type="text/css" id="current-color-scheme">
      .ColorScheme-Text {
        color:#dedede;
      }
      </style>
  </defs>
 <path style="fill:currentColor;fill-opacity:1;stroke:none" 
     d="M 10 4 L 4 6 L 6 12 L 16 17 L 20 9 L 10 4 z M 4 6 L 4 12 L 12 20 L 14.705078 17.294922 L 5 12 L 4 6 z M 7.5 6 C 8.331 6 9 6.669 9 7.5 C 9 8.331 8.331 9 7.5 9 C 6.669 9 6 8.331 6 7.5 C 6 6.669 6.669 6 7.5 6 z "
     class="ColorScheme-Text"
     />
</svg>
